report_00007_2020-12-11T15:55:29.892Z/total-byte-weight/comparison/line/11_vs_12.svg

<svg width="640" height="500" xmlns="http://www.w3.org/2000/svg" xmlns:xlink="http://www.w3.org/1999/xlink"><path fill="#fff" d="M0 0h640v500H0z"/><defs><path id="d" stroke-width=".222" stroke="currentColor" d="M-1-1h2v2h-2z"/><path id="b" stroke-width=".222" stroke="currentColor" d="M0-1.33l-1.33 2h2.66z"/><path id="f" stroke-width=".222" stroke="currentColor" d="M0 1.33L1.265.411.782-1.067l-1.564-.009-.483 1.487z"/><use xlink:href="#b" id="c" stroke="currentColor" transform="rotate(180)"/><use xlink:href="#d" id="e" stroke="currentColor" transform="rotate(45)"/><circle id="a" stroke-width=".222" stroke="currentColor" cx="0" cy="0" r="1"/></defs><g fill="none" color="#000" stroke="currentColor"><path stroke="#000" d="M78.8 360.3h9m527.2 0h-9"/><text transform="translate(70.5 364.2)" stroke="none" fill="#000" font-family="Arial" font-size="12" text-anchor="end"><tspan>65000</tspan></text></g><g fill="none" color="#000" stroke="currentColor"><path stroke="#000" d="M78.8 320.5h9m527.2 0h-9"/><text transform="translate(70.5 324.4)" stroke="none" fill="#000" font-family="Arial" font-size="12" text-anchor="end"><tspan>70000</tspan></text></g><g fill="none" color="#000" stroke="currentColor"><path stroke="#000" d="M78.8 280.7h9m527.2 0h-9"/><text transform="translate(70.5 284.6)" stroke="none" fill="#000" font-family="Arial" font-size="12" text-anchor="end"><tspan>75000</tspan></text></g><g fill="none" color="#000" stroke="currentColor"><path stroke="#000" d="M78.8 241h9m527.2 0h-9"/><text transform="translate(70.5 244.9)" stroke="none" fill="#000" font-family="Arial" font-size="12" text-anchor="end"><tspan>80000</tspan></text></g><g fill="none" color="#000" stroke="currentColor"><path stroke="#000" d="M78.8 201.2h9m527.2 0h-9"/><text transform="translate(70.5 205.1)" stroke="none" fill="#000" font-family="Arial" font-size="12" text-anchor="end"><tspan>85000</tspan></text></g><g fill="none" color="#000" stroke="currentColor"><path stroke="#000" d="M78.8 161.4h9m527.2 0h-9"/><text transform="translate(70.5 165.3)" stroke="none" fill="#000" font-family="Arial" font-size="12" text-anchor="end"><tspan>90000</tspan></text></g><g fill="none" color="#000" stroke="currentColor"><path stroke="#000" d="M78.8 121.6h9m527.2 0h-9"/><text transform="translate(70.5 125.5)" stroke="none" fill="#000" font-family="Arial" font-size="12" text-anchor="end"><tspan>95000</tspan></text></g><g fill="none" color="#000" stroke="currentColor"><path stroke="#000" d="M78.8 81.9h9m527.2 0h-9"/><text transform="translate(70.5 85.8)" stroke="none" fill="#000" font-family="Arial" font-size="12" text-anchor="end"><tspan>100000</tspan></text></g><g fill="none" color="#000" stroke="currentColor"><path stroke="#000" d="M78.8 42.1h9m527.2 0h-9"/><text transform="translate(70.5 46)" stroke="none" fill="#000" font-family="Arial" font-size="12" text-anchor="end"><tspan>105000</tspan></text></g><g fill="none" color="#000" stroke="currentColor"><path stroke="#000" d="M78.8 392v-9m0-364.9v9"/><text transform="translate(78.8 413.9)" stroke="none" fill="#000" font-family="Arial" font-size="12" text-anchor="middle"><tspan>0</tspan></text></g><g fill="none" color="#000" stroke="currentColor"><path stroke="#000" d="M133 392v-9m0-364.9v9"/><text transform="translate(133 413.9)" stroke="none" fill="#000" font-family="Arial" font-size="12" text-anchor="middle"><tspan>10</tspan></text></g><g fill="none" color="#000" stroke="currentColor"><path stroke="#000" d="M187.1 392v-9m0-364.9v9"/><text transform="translate(187.1 413.9)" stroke="none" fill="#000" font-family="Arial" font-size="12" text-anchor="middle"><tspan>20</tspan></text></g><g fill="none" color="#000" stroke="currentColor"><path stroke="#000" d="M241.3 392v-9m0-364.9v9"/><text transform="translate(241.3 413.9)" stroke="none" fill="#000" font-family="Arial" font-size="12" text-anchor="middle"><tspan>30</tspan></text></g><g fill="none" color="#000" stroke="currentColor"><path stroke="#000" d="M295.4 392v-9m0-364.9v9"/><text transform="translate(295.4 413.9)" stroke="none" fill="#000" font-family="Arial" font-size="12" text-anchor="middle"><tspan>40</tspan></text></g><g fill="none" color="#000" stroke="currentColor"><path stroke="#000" d="M349.6 392v-9m0-364.9v9"/><text transform="translate(349.6 413.9)" stroke="none" fill="#000" font-family="Arial" font-size="12" text-anchor="middle"><tspan>50</tspan></text></g><g fill="none" color="#000" stroke="currentColor"><path stroke="#000" d="M403.8 392v-9m0-364.9v9"/><text transform="translate(403.8 413.9)" stroke="none" fill="#000" font-family="Arial" font-size="12" text-anchor="middle"><tspan>60</tspan></text></g><g fill="none" color="#000" stroke="currentColor"><path stroke="#000" d="M457.9 392v-9m0-364.9v9"/><text transform="translate(457.9 413.9)" stroke="none" fill="#000" font-family="Arial" font-size="12" text-anchor="middle"><tspan>70</tspan></text></g><g fill="none" color="#000" stroke="currentColor"><path stroke="#000" d="M512.1 392v-9m0-364.9v9"/><text transform="translate(512.1 413.9)" stroke="none" fill="#000" font-family="Arial" font-size="12" text-anchor="middle"><tspan>80</tspan></text></g><g fill="none" color="#000" stroke="currentColor"><path stroke="#000" d="M566.3 392v-9m0-364.9v9"/><text transform="translate(566.3 413.9)" stroke="none" fill="#000" font-family="Arial" font-size="12" text-anchor="middle"><tspan>90</tspan></text></g><path stroke="#000" d="M78.8 18.1V392H615V18.1H78.8z" fill="none" color="#000"/><text transform="translate(520.8 431.9)" stroke="none" fill="#000" font-family="Arial" font-size="12" text-anchor="end" color="#000"><tspan>pages+cached+noexternal+nofonts+nosvg+noimg</tspan></text><path stroke="#9400D3" d="M529.1 428h42.2M78.8 25.4h27.1l5.4.1 5.4-.1h32.5l5.4-.1 5.4.1 5.5.1 5.4-.1 5.4.1 5.4-.1h32.5l5.4.1 5.4-.2 5.5.1H290l5.4.1 5.5-.1h10.8l5.4.1 5.4-.1H355l5.4-.1 5.5.1h10.8l5.4.1 5.4-.1H409.2l5.4.1 5.4-.2 5.4.1h10.9l5.4-.1 5.4.1 5.4-.1 5.4.1h10.9l5.4.1 5.4-.1h5.4l5.4.1 5.4-.2 5.5.1 5.4-.1 5.4.1h5.4l5.4-.1 5.4.1H615" fill="none" color="#000"/><text transform="translate(520.8 449.9)" stroke="none" fill="#000" font-family="Arial" font-size="12" text-anchor="end" color="#000"><tspan>pages+cached+noexternal+nofonts+nosvg+noimg+nocss</tspan></text><path stroke="#009E73" d="M529.1 446h42.2M78.8 384.8h5.4l5.4-.1 5.4.1h16.3l5.4-.1 5.4.1h5.4l5.5-.1 5.4.1H154.6l5.4-.1 5.5.1H181.7l5.4-.1 5.4.1h5.5l5.4-.1 5.4.1H225l5.5-.1 5.4.1H252.1l5.4-.1 5.4.1h5.5l5.4-.1 5.4.1H295.4l5.5-.1 5.4.1H322.5l5.4-.1 5.5.1h5.4l5.4-.1 5.4.1h16.3l5.4-.1 5.4.1H392.9l5.5-.1 5.4.1h5.4l5.4-.1 5.4.1h16.3l5.4-.1 5.4.1H463.3l5.5-.1 5.4.1h5.4l5.4-.1 5.4.1h16.3l5.4-.1 5.4.1h16.3l5.4-.1 5.4.1h5.4l5.4-.1 5.4.1h16.3l5.4-.1 5.4.1h16.3l5.4-.1 5.4.1" fill="none" color="#000"/><text transform="translate(520.8 467.9)" stroke="none" fill="#000" font-family="Arial" font-size="12" text-anchor="end" color="#000"><tspan>score p10=2731008</tspan></text><path stroke="#56B4E9" d="M529.1 464h42.2" fill="none" color="#000"/><g><text transform="translate(520.8 485.9)" stroke="none" fill="#000" font-family="Arial" font-size="12" text-anchor="end" color="#000"><tspan>score median=4096000</tspan></text><path stroke="#E69F00" d="M529.1 482h42.2" fill="none" color="#000"/></g><g fill="none" color="#000" stroke="currentColor"><path stroke="#000" d="M78.8 18.1V392H615V18.1H78.8z"/></g></svg>

<?xml version="1.0" encoding="utf-8"  standalone="no"?>
<svg 
 width="640" height="500"
 viewBox="0 0 640 500"
 xmlns="http://www.w3.org/2000/svg"
 xmlns:xlink="http://www.w3.org/1999/xlink"
>

<title>Gnuplot</title>
<desc>Produced by GNUPLOT 5.4 patchlevel 0 </desc>

<g id="gnuplot_canvas">

<rect x="0" y="0" width="640" height="500" fill="#ffffff"/>
<defs>

	<circle id='gpDot' r='0.5' stroke-width='0.5' stroke='currentColor'/>
	<path id='gpPt0' stroke-width='0.222' stroke='currentColor' d='M-1,0 h2 M0,-1 v2'/>
	<path id='gpPt1' stroke-width='0.222' stroke='currentColor' d='M-1,-1 L1,1 M1,-1 L-1,1'/>
	<path id='gpPt2' stroke-width='0.222' stroke='currentColor' d='M-1,0 L1,0 M0,-1 L0,1 M-1,-1 L1,1 M-1,1 L1,-1'/>
	<rect id='gpPt3' stroke-width='0.222' stroke='currentColor' x='-1' y='-1' width='2' height='2'/>
	<rect id='gpPt4' stroke-width='0.222' stroke='currentColor' fill='currentColor' x='-1' y='-1' width='2' height='2'/>
	<circle id='gpPt5' stroke-width='0.222' stroke='currentColor' cx='0' cy='0' r='1'/>
	<use xlink:href='#gpPt5' id='gpPt6' fill='currentColor' stroke='none'/>
	<path id='gpPt7' stroke-width='0.222' stroke='currentColor' d='M0,-1.33 L-1.33,0.67 L1.33,0.67 z'/>
	<use xlink:href='#gpPt7' id='gpPt8' fill='currentColor' stroke='none'/>
	<use xlink:href='#gpPt7' id='gpPt9' stroke='currentColor' transform='rotate(180)'/>
	<use xlink:href='#gpPt9' id='gpPt10' fill='currentColor' stroke='none'/>
	<use xlink:href='#gpPt3' id='gpPt11' stroke='currentColor' transform='rotate(45)'/>
	<use xlink:href='#gpPt11' id='gpPt12' fill='currentColor' stroke='none'/>
	<path id='gpPt13' stroke-width='0.222' stroke='currentColor' d='M0,1.330 L1.265,0.411 L0.782,-1.067 L-0.782,-1.076 L-1.265,0.411 z'/>
	<use xlink:href='#gpPt13' id='gpPt14' fill='currentColor' stroke='none'/>
	<filter id='textbox' filterUnits='objectBoundingBox' x='0' y='0' height='1' width='1'>
	  <feFlood flood-color='#FFFFFF' flood-opacity='1' result='bgnd'/>
	  <feComposite in='SourceGraphic' in2='bgnd' operator='atop'/>
	</filter>
	<filter id='greybox' filterUnits='objectBoundingBox' x='0' y='0' height='1' width='1'>
	  <feFlood flood-color='lightgrey' flood-opacity='1' result='grey'/>
	  <feComposite in='SourceGraphic' in2='grey' operator='atop'/>
	</filter>
</defs>
<g fill="none" color="#FFFFFF" stroke="black" stroke-width="1.00" stroke-linecap="butt" stroke-linejoin="miter">
</g>
<g fill="none" color="black" stroke="currentColor" stroke-width="1.00" stroke-linecap="butt" stroke-linejoin="miter">
	<path stroke='black'  d='M78.8,360.3 L87.8,360.3 M615.0,360.3 L606.0,360.3  '/>	<g transform="translate(70.5,364.2)" stroke="none" fill="black" font-family="Arial" font-size="12.00"  text-anchor="end">
		<text><tspan font-family="Arial" > 65000</tspan></text>
	</g>
</g>
<g fill="none" color="black" stroke="currentColor" stroke-width="1.00" stroke-linecap="butt" stroke-linejoin="miter">
	<path stroke='black'  d='M78.8,320.5 L87.8,320.5 M615.0,320.5 L606.0,320.5  '/>	<g transform="translate(70.5,324.4)" stroke="none" fill="black" font-family="Arial" font-size="12.00"  text-anchor="end">
		<text><tspan font-family="Arial" > 70000</tspan></text>
	</g>
</g>
<g fill="none" color="black" stroke="currentColor" stroke-width="1.00" stroke-linecap="butt" stroke-linejoin="miter">
	<path stroke='black'  d='M78.8,280.7 L87.8,280.7 M615.0,280.7 L606.0,280.7  '/>	<g transform="translate(70.5,284.6)" stroke="none" fill="black" font-family="Arial" font-size="12.00"  text-anchor="end">
		<text><tspan font-family="Arial" > 75000</tspan></text>
	</g>
</g>
<g fill="none" color="black" stroke="currentColor" stroke-width="1.00" stroke-linecap="butt" stroke-linejoin="miter">
	<path stroke='black'  d='M78.8,241.0 L87.8,241.0 M615.0,241.0 L606.0,241.0  '/>	<g transform="translate(70.5,244.9)" stroke="none" fill="black" font-family="Arial" font-size="12.00"  text-anchor="end">
		<text><tspan font-family="Arial" > 80000</tspan></text>
	</g>
</g>
<g fill="none" color="black" stroke="currentColor" stroke-width="1.00" stroke-linecap="butt" stroke-linejoin="miter">
	<path stroke='black'  d='M78.8,201.2 L87.8,201.2 M615.0,201.2 L606.0,201.2  '/>	<g transform="translate(70.5,205.1)" stroke="none" fill="black" font-family="Arial" font-size="12.00"  text-anchor="end">
		<text><tspan font-family="Arial" > 85000</tspan></text>
	</g>
</g>
<g fill="none" color="black" stroke="currentColor" stroke-width="1.00" stroke-linecap="butt" stroke-linejoin="miter">
	<path stroke='black'  d='M78.8,161.4 L87.8,161.4 M615.0,161.4 L606.0,161.4  '/>	<g transform="translate(70.5,165.3)" stroke="none" fill="black" font-family="Arial" font-size="12.00"  text-anchor="end">
		<text><tspan font-family="Arial" > 90000</tspan></text>
	</g>
</g>
<g fill="none" color="black" stroke="currentColor" stroke-width="1.00" stroke-linecap="butt" stroke-linejoin="miter">
	<path stroke='black'  d='M78.8,121.6 L87.8,121.6 M615.0,121.6 L606.0,121.6  '/>	<g transform="translate(70.5,125.5)" stroke="none" fill="black" font-family="Arial" font-size="12.00"  text-anchor="end">
		<text><tspan font-family="Arial" > 95000</tspan></text>
	</g>
</g>
<g fill="none" color="black" stroke="currentColor" stroke-width="1.00" stroke-linecap="butt" stroke-linejoin="miter">
	<path stroke='black'  d='M78.8,81.9 L87.8,81.9 M615.0,81.9 L606.0,81.9  '/>	<g transform="translate(70.5,85.8)" stroke="none" fill="black" font-family="Arial" font-size="12.00"  text-anchor="end">
		<text><tspan font-family="Arial" > 100000</tspan></text>
	</g>
</g>
<g fill="none" color="black" stroke="currentColor" stroke-width="1.00" stroke-linecap="butt" stroke-linejoin="miter">
	<path stroke='black'  d='M78.8,42.1 L87.8,42.1 M615.0,42.1 L606.0,42.1  '/>	<g transform="translate(70.5,46.0)" stroke="none" fill="black" font-family="Arial" font-size="12.00"  text-anchor="end">
		<text><tspan font-family="Arial" > 105000</tspan></text>
	</g>
</g>
<g fill="none" color="black" stroke="currentColor" stroke-width="1.00" stroke-linecap="butt" stroke-linejoin="miter">
	<path stroke='black'  d='M78.8,392.0 L78.8,383.0 M78.8,18.1 L78.8,27.1  '/>	<g transform="translate(78.8,413.9)" stroke="none" fill="black" font-family="Arial" font-size="12.00"  text-anchor="middle">
		<text><tspan font-family="Arial" > 0</tspan></text>
	</g>
</g>
<g fill="none" color="black" stroke="currentColor" stroke-width="1.00" stroke-linecap="butt" stroke-linejoin="miter">
	<path stroke='black'  d='M133.0,392.0 L133.0,383.0 M133.0,18.1 L133.0,27.1  '/>	<g transform="translate(133.0,413.9)" stroke="none" fill="black" font-family="Arial" font-size="12.00"  text-anchor="middle">
		<text><tspan font-family="Arial" > 10</tspan></text>
	</g>
</g>
<g fill="none" color="black" stroke="currentColor" stroke-width="1.00" stroke-linecap="butt" stroke-linejoin="miter">
	<path stroke='black'  d='M187.1,392.0 L187.1,383.0 M187.1,18.1 L187.1,27.1  '/>	<g transform="translate(187.1,413.9)" stroke="none" fill="black" font-family="Arial" font-size="12.00"  text-anchor="middle">
		<text><tspan font-family="Arial" > 20</tspan></text>
	</g>
</g>
<g fill="none" color="black" stroke="currentColor" stroke-width="1.00" stroke-linecap="butt" stroke-linejoin="miter">
	<path stroke='black'  d='M241.3,392.0 L241.3,383.0 M241.3,18.1 L241.3,27.1  '/>	<g transform="translate(241.3,413.9)" stroke="none" fill="black" font-family="Arial" font-size="12.00"  text-anchor="middle">
		<text><tspan font-family="Arial" > 30</tspan></text>
	</g>
</g>
<g fill="none" color="black" stroke="currentColor" stroke-width="1.00" stroke-linecap="butt" stroke-linejoin="miter">
	<path stroke='black'  d='M295.4,392.0 L295.4,383.0 M295.4,18.1 L295.4,27.1  '/>	<g transform="translate(295.4,413.9)" stroke="none" fill="black" font-family="Arial" font-size="12.00"  text-anchor="middle">
		<text><tspan font-family="Arial" > 40</tspan></text>
	</g>
</g>
<g fill="none" color="black" stroke="currentColor" stroke-width="1.00" stroke-linecap="butt" stroke-linejoin="miter">
	<path stroke='black'  d='M349.6,392.0 L349.6,383.0 M349.6,18.1 L349.6,27.1  '/>	<g transform="translate(349.6,413.9)" stroke="none" fill="black" font-family="Arial" font-size="12.00"  text-anchor="middle">
		<text><tspan font-family="Arial" > 50</tspan></text>
	</g>
</g>
<g fill="none" color="black" stroke="currentColor" stroke-width="1.00" stroke-linecap="butt" stroke-linejoin="miter">
	<path stroke='black'  d='M403.8,392.0 L403.8,383.0 M403.8,18.1 L403.8,27.1  '/>	<g transform="translate(403.8,413.9)" stroke="none" fill="black" font-family="Arial" font-size="12.00"  text-anchor="middle">
		<text><tspan font-family="Arial" > 60</tspan></text>
	</g>
</g>
<g fill="none" color="black" stroke="currentColor" stroke-width="1.00" stroke-linecap="butt" stroke-linejoin="miter">
	<path stroke='black'  d='M457.9,392.0 L457.9,383.0 M457.9,18.1 L457.9,27.1  '/>	<g transform="translate(457.9,413.9)" stroke="none" fill="black" font-family="Arial" font-size="12.00"  text-anchor="middle">
		<text><tspan font-family="Arial" > 70</tspan></text>
	</g>
</g>
<g fill="none" color="black" stroke="currentColor" stroke-width="1.00" stroke-linecap="butt" stroke-linejoin="miter">
	<path stroke='black'  d='M512.1,392.0 L512.1,383.0 M512.1,18.1 L512.1,27.1  '/>	<g transform="translate(512.1,413.9)" stroke="none" fill="black" font-family="Arial" font-size="12.00"  text-anchor="middle">
		<text><tspan font-family="Arial" > 80</tspan></text>
	</g>
</g>
<g fill="none" color="black" stroke="currentColor" stroke-width="1.00" stroke-linecap="butt" stroke-linejoin="miter">
	<path stroke='black'  d='M566.3,392.0 L566.3,383.0 M566.3,18.1 L566.3,27.1  '/>	<g transform="translate(566.3,413.9)" stroke="none" fill="black" font-family="Arial" font-size="12.00"  text-anchor="middle">
		<text><tspan font-family="Arial" > 90</tspan></text>
	</g>
</g>
<g fill="none" color="black" stroke="currentColor" stroke-width="1.00" stroke-linecap="butt" stroke-linejoin="miter">
</g>
<g fill="none" color="black" stroke="currentColor" stroke-width="1.00" stroke-linecap="butt" stroke-linejoin="miter">
	<path stroke='black'  d='M78.8,18.1 L78.8,392.0 L615.0,392.0 L615.0,18.1 L78.8,18.1 Z  '/></g>
<g fill="none" color="black" stroke="currentColor" stroke-width="1.00" stroke-linecap="butt" stroke-linejoin="miter">
</g>
	<g id="gnuplot_plot_1" ><title>pages+cached+noexternal+nofonts+nosvg+noimg</title>
<g fill="none" color="black" stroke="currentColor" stroke-width="1.00" stroke-linecap="butt" stroke-linejoin="miter">
	<g transform="translate(520.8,431.9)" stroke="none" fill="black" font-family="Arial" font-size="12.00"  text-anchor="end">
		<text><tspan font-family="Arial" >pages+cached+noexternal+nofonts+nosvg+noimg</tspan></text>
	</g>
</g>
<g fill="none" color="black" stroke="currentColor" stroke-width="1.00" stroke-linecap="butt" stroke-linejoin="miter">
	<path stroke='rgb(148,   0, 211)'  d='M529.1,428.0 L571.3,428.0 M78.8,25.4 L84.2,25.4 L89.6,25.4 L95.0,25.4 L100.5,25.4 L105.9,25.4
		L111.3,25.5 L116.7,25.4 L122.1,25.4 L127.5,25.4 L133.0,25.4 L138.4,25.4 L143.8,25.4 L149.2,25.4
		L154.6,25.3 L160.0,25.4 L165.5,25.5 L170.9,25.4 L176.3,25.5 L181.7,25.4 L187.1,25.4 L192.5,25.4
		L198.0,25.4 L203.4,25.4 L208.8,25.4 L214.2,25.4 L219.6,25.5 L225.0,25.3 L230.5,25.4 L235.9,25.4
		L241.3,25.4 L246.7,25.4 L252.1,25.4 L257.5,25.4 L262.9,25.4 L268.4,25.4 L273.8,25.4 L279.2,25.4
		L284.6,25.4 L290.0,25.4 L295.4,25.5 L300.9,25.4 L306.3,25.4 L311.7,25.4 L317.1,25.5 L322.5,25.4
		L327.9,25.4 L333.4,25.4 L338.8,25.4 L344.2,25.4 L349.6,25.4 L355.0,25.4 L360.4,25.3 L365.9,25.4
		L371.3,25.4 L376.7,25.4 L382.1,25.5 L387.5,25.4 L392.9,25.4 L398.4,25.4 L403.8,25.4 L409.2,25.4
		L414.6,25.5 L420.0,25.3 L425.4,25.4 L430.9,25.4 L436.3,25.4 L441.7,25.3 L447.1,25.4 L452.5,25.3
		L457.9,25.4 L463.3,25.4 L468.8,25.4 L474.2,25.5 L479.6,25.4 L485.0,25.4 L490.4,25.5 L495.8,25.3
		L501.3,25.4 L506.7,25.3 L512.1,25.4 L517.5,25.4 L522.9,25.3 L528.3,25.4 L533.8,25.4 L539.2,25.4
		L544.6,25.4 L550.0,25.4 L555.4,25.4 L560.8,25.4 L566.3,25.4 L571.7,25.4 L577.1,25.4 L582.5,25.4
		L587.9,25.4 L593.3,25.4 L598.8,25.4 L604.2,25.4 L609.6,25.4 L615.0,25.4  '/></g>
	</g>
	<g id="gnuplot_plot_2" ><title>pages+cached+noexternal+nofonts+nosvg+noimg+nocss</title>
<g fill="none" color="black" stroke="currentColor" stroke-width="1.00" stroke-linecap="butt" stroke-linejoin="miter">
	<g transform="translate(520.8,449.9)" stroke="none" fill="black" font-family="Arial" font-size="12.00"  text-anchor="end">
		<text><tspan font-family="Arial" >pages+cached+noexternal+nofonts+nosvg+noimg+nocss</tspan></text>
	</g>
</g>
<g fill="none" color="black" stroke="currentColor" stroke-width="1.00" stroke-linecap="butt" stroke-linejoin="miter">
	<path stroke='rgb(  0, 158, 115)'  d='M529.1,446.0 L571.3,446.0 M78.8,384.8 L84.2,384.8 L89.6,384.7 L95.0,384.8 L100.5,384.8 L105.9,384.8
		L111.3,384.8 L116.7,384.7 L122.1,384.8 L127.5,384.8 L133.0,384.7 L138.4,384.8 L143.8,384.8 L149.2,384.8
		L154.6,384.8 L160.0,384.7 L165.5,384.8 L170.9,384.8 L176.3,384.8 L181.7,384.8 L187.1,384.7 L192.5,384.8
		L198.0,384.8 L203.4,384.7 L208.8,384.8 L214.2,384.8 L219.6,384.8 L225.0,384.8 L230.5,384.7 L235.9,384.8
		L241.3,384.8 L246.7,384.8 L252.1,384.8 L257.5,384.7 L262.9,384.8 L268.4,384.8 L273.8,384.7 L279.2,384.8
		L284.6,384.8 L290.0,384.8 L295.4,384.8 L300.9,384.7 L306.3,384.8 L311.7,384.8 L317.1,384.8 L322.5,384.8
		L327.9,384.7 L333.4,384.8 L338.8,384.8 L344.2,384.7 L349.6,384.8 L355.0,384.8 L360.4,384.8 L365.9,384.8
		L371.3,384.7 L376.7,384.8 L382.1,384.8 L387.5,384.8 L392.9,384.8 L398.4,384.7 L403.8,384.8 L409.2,384.8
		L414.6,384.7 L420.0,384.8 L425.4,384.8 L430.9,384.8 L436.3,384.8 L441.7,384.7 L447.1,384.8 L452.5,384.8
		L457.9,384.8 L463.3,384.8 L468.8,384.7 L474.2,384.8 L479.6,384.8 L485.0,384.7 L490.4,384.8 L495.8,384.8
		L501.3,384.8 L506.7,384.8 L512.1,384.7 L517.5,384.8 L522.9,384.8 L528.3,384.8 L533.8,384.8 L539.2,384.7
		L544.6,384.8 L550.0,384.8 L555.4,384.7 L560.8,384.8 L566.3,384.8 L571.7,384.8 L577.1,384.8 L582.5,384.7
		L587.9,384.8 L593.3,384.8 L598.8,384.8 L604.2,384.8 L609.6,384.7 L615.0,384.8  '/></g>
	</g>
	<g id="gnuplot_plot_3" ><title>score p10=2731008</title>
<g fill="none" color="black" stroke="currentColor" stroke-width="1.00" stroke-linecap="butt" stroke-linejoin="miter">
	<g transform="translate(520.8,467.9)" stroke="none" fill="black" font-family="Arial" font-size="12.00"  text-anchor="end">
		<text><tspan font-family="Arial" >score p10=2731008</tspan></text>
	</g>
</g>
<g fill="none" color="black" stroke="currentColor" stroke-width="1.00" stroke-linecap="butt" stroke-linejoin="miter">
	<path stroke='rgb( 86, 180, 233)'  d='M529.1,464.0 L571.3,464.0  '/></g>
	</g>
	<g id="gnuplot_plot_4" ><title>score median=4096000</title>
<g fill="none" color="black" stroke="currentColor" stroke-width="1.00" stroke-linecap="butt" stroke-linejoin="miter">
	<g transform="translate(520.8,485.9)" stroke="none" fill="black" font-family="Arial" font-size="12.00"  text-anchor="end">
		<text><tspan font-family="Arial" >score median=4096000</tspan></text>
	</g>
</g>
<g fill="none" color="black" stroke="currentColor" stroke-width="1.00" stroke-linecap="butt" stroke-linejoin="miter">
	<path stroke='rgb(230, 159,   0)'  d='M529.1,482.0 L571.3,482.0  '/></g>
	</g>
<g fill="none" color="#FFFFFF" stroke="rgb(230, 159,   0)" stroke-width="2.00" stroke-linecap="butt" stroke-linejoin="miter">
</g>
<g fill="none" color="black" stroke="currentColor" stroke-width="2.00" stroke-linecap="butt" stroke-linejoin="miter">
</g>
<g fill="none" color="black" stroke="black" stroke-width="1.00" stroke-linecap="butt" stroke-linejoin="miter">
</g>
<g fill="none" color="black" stroke="currentColor" stroke-width="1.00" stroke-linecap="butt" stroke-linejoin="miter">
	<path stroke='black'  d='M78.8,18.1 L78.8,392.0 L615.0,392.0 L615.0,18.1 L78.8,18.1 Z  '/></g>
<g fill="none" color="black" stroke="currentColor" stroke-width="1.00" stroke-linecap="butt" stroke-linejoin="miter">
</g>
</g>
</svg>
